static/img/kroki/cf17b221c235f30585e49130e616f516.svg

<?xml version="1.0" encoding="us-ascii" standalone="no"?><svg xmlns="http://www.w3.org/2000/svg" xmlns:xlink="http://www.w3.org/1999/xlink" contentStyleType="text/css" height="645px" preserveAspectRatio="none" style="width:271px;height:645px;" version="1.1" viewBox="0 0 271 645" width="271px" zoomAndPan="magnify"><defs/><g><!--class aws_iam_instance_profile--><g id="elem_aws_iam_instance_profile"><rect codeLine="23" fill="#3D176E" height="39.7891" id="aws_iam_instance_profile" rx="2.5" ry="2.5" style="stroke:#000D19;stroke-width:0.5;" width="257" x="7" y="599.55"/><ellipse cx="22" cy="619.4445" fill="#ADD1B2" rx="11" ry="11" style="stroke:#181818;stroke-width:1.0;"/><path d="M24.9688,625.0852 Q24.3906,625.382 23.75,625.5227 Q23.1094,625.6789 22.4063,625.6789 Q19.9063,625.6789 18.5781,624.0383 Q17.2656,622.382 17.2656,619.257 Q17.2656,616.132 18.5781,614.4758 Q19.9063,612.8195 22.4063,612.8195 Q23.1094,612.8195 23.75,612.9758 Q24.4063,613.132 24.9688,613.4289 L24.9688,616.1477 Q24.3438,615.5695 23.75,615.3039 Q23.1563,615.0227 22.5313,615.0227 Q21.1875,615.0227 20.5,616.1008 Q19.8125,617.1633 19.8125,619.257 Q19.8125,621.3508 20.5,622.4289 Q21.1875,623.4914 22.5313,623.4914 Q23.1563,623.4914 23.75,623.2258 Q24.3438,622.9445 24.9688,622.3664 L24.9688,625.0852 Z " fill="#000000"/><text fill="#D9B8FF" font-family="Helvetica" font-size="17" lengthAdjust="spacing" textLength="215" x="41" y="625.3298">aws_iam_instance_profile</text></g><!--class instance_profile--><g id="elem_instance_profile"><rect codeLine="26" fill="#3D176E" height="39.7891" id="instance_profile" rx="2.5" ry="2.5" style="stroke:#000D19;stroke-width:0.5;" width="174" x="48.5" y="438.76"/><ellipse cx="63.5" cy="458.6545" fill="#ADD1B2" rx="11" ry="11" style="stroke:#181818;stroke-width:1.0;"/><path d="M66.4688,464.2952 Q65.8906,464.592 65.25,464.7327 Q64.6094,464.8889 63.9063,464.8889 Q61.4063,464.8889 60.0781,463.2483 Q58.7656,461.592 58.7656,458.467 Q58.7656,455.342 60.0781,453.6858 Q61.4063,452.0295 63.9063,452.0295 Q64.6094,452.0295 65.25,452.1858 Q65.9063,452.342 66.4688,452.6389 L66.4688,455.3577 Q65.8438,454.7795 65.25,454.5139 Q64.6563,454.2327 64.0313,454.2327 Q62.6875,454.2327 62,455.3108 Q61.3125,456.3733 61.3125,458.467 Q61.3125,460.5608 62,461.6389 Q62.6875,462.7014 64.0313,462.7014 Q64.6563,462.7014 65.25,462.4358 Q65.8438,462.1545 66.4688,461.5764 L66.4688,464.2952 Z " fill="#000000"/><text fill="#D9B8FF" font-family="Helvetica" font-size="17" lengthAdjust="spacing" textLength="132" x="82.5" y="464.5398">instance_profile</text></g><!--class resource--><g id="elem_resource"><rect codeLine="29" fill="#3D176E" height="310.7578" id="resource" rx="2.5" ry="2.5" style="stroke:#000D19;stroke-width:0.5;" width="227" x="22" y="7"/><ellipse cx="90.75" cy="26.8945" fill="#ADD1B2" rx="11" ry="11" style="stroke:#181818;stroke-width:1.0;"/><path d="M93.7188,32.5352 Q93.1406,32.832 92.5,32.9727 Q91.8594,33.1289 91.1563,33.1289 Q88.6563,33.1289 87.3281,31.4883 Q86.0156,29.832 86.0156,26.707 Q86.0156,23.582 87.3281,21.9258 Q88.6563,20.2695 91.1563,20.2695 Q91.8594,20.2695 92.5,20.4258 Q93.1563,20.582 93.7188,20.8789 L93.7188,23.5977 Q93.0938,23.0195 92.5,22.7539 Q91.9063,22.4727 91.2813,22.4727 Q89.9375,22.4727 89.25,23.5508 Q88.5625,24.6133 88.5625,26.707 Q88.5625,28.8008 89.25,29.8789 Q89.9375,30.9414 91.2813,30.9414 Q91.9063,30.9414 92.5,30.6758 Q93.0938,30.3945 93.7188,29.8164 L93.7188,32.5352 Z " fill="#000000"/><text fill="#D9B8FF" font-family="Helvetica" font-size="17" lengthAdjust="spacing" textLength="71" x="116.25" y="32.7798">resource</text><line style="stroke:#000D19;stroke-width:0.5;" x1="23" x2="248" y1="46.7891" y2="46.7891"/><text fill="#D9B8FF" font-family="sans-serif" font-size="14" font-weight="bold" lengthAdjust="spacing" textLength="29" x="33" y="68.7842">age</text><text fill="#D9B8FF" font-family="sans-serif" font-size="14" lengthAdjust="spacing" textLength="66" x="62" y="68.7842">: duration</text><text fill="#D9B8FF" font-family="sans-serif" font-size="14" font-weight="bold" lengthAdjust="spacing" textLength="43" x="33" y="95.0811">atime</text><text fill="#D9B8FF" font-family="sans-serif" font-size="14" lengthAdjust="spacing" textLength="70" x="76" y="95.0811">: datetime</text><text fill="#D9B8FF" font-family="sans-serif" font-size="14" font-weight="bold" lengthAdjust="spacing" textLength="43" x="33" y="121.3779">ctime</text><text fill="#D9B8FF" font-family="sans-serif" font-size="14" lengthAdjust="spacing" textLength="70" x="76" y="121.3779">: datetime</text><text fill="#D9B8FF" font-family="sans-serif" font-size="14" font-weight="bold" lengthAdjust="spacing" textLength="14" x="33" y="147.6748">id</text><text fill="#D9B8FF" font-family="sans-serif" font-size="14" lengthAdjust="spacing" textLength="48" x="47" y="147.6748">: string</text><text fill="#D9B8FF" font-family="sans-serif" font-size="14" font-weight="bold" lengthAdjust="spacing" textLength="33" x="33" y="173.9717">kind</text><text fill="#D9B8FF" font-family="sans-serif" font-size="14" lengthAdjust="spacing" textLength="48" x="66" y="173.9717">: string</text><text fill="#D9B8FF" font-family="sans-serif" font-size="14" font-weight="bold" lengthAdjust="spacing" textLength="90" x="33" y="200.2686">last_access</text><text fill="#D9B8FF" font-family="sans-serif" font-size="14" lengthAdjust="spacing" textLength="66" x="123" y="200.2686">: duration</text><text fill="#D9B8FF" font-family="sans-serif" font-size="14" font-weight="bold" lengthAdjust="spacing" textLength="90" x="33" y="226.5654">last_update</text><text fill="#D9B8FF" font-family="sans-serif" font-size="14" lengthAdjust="spacing" textLength="66" x="123" y="226.5654">: duration</text><text fill="#D9B8FF" font-family="sans-serif" font-size="14" font-weight="bold" lengthAdjust="spacing" textLength="48" x="33" y="252.8623">mtime</text><text fill="#D9B8FF" font-family="sans-serif" font-size="14" lengthAdjust="spacing" textLength="70" x="81" y="252.8623">: datetime</text><text fill="#D9B8FF" font-family="sans-serif" font-size="14" font-weight="bold" lengthAdjust="spacing" textLength="43" x="33" y="279.1592">name</text><text fill="#D9B8FF" font-family="sans-serif" font-size="14" lengthAdjust="spacing" textLength="48" x="76" y="279.1592">: string</text><text fill="#D9B8FF" font-family="sans-serif" font-size="14" font-weight="bold" lengthAdjust="spacing" textLength="34" x="33" y="305.4561">tags</text><text fill="#D9B8FF" font-family="sans-serif" font-size="14" lengthAdjust="spacing" textLength="171" x="67" y="305.4561">: dictionary[string, string]</text></g><!--reverse link instance_profile to aws_iam_instance_profile--><g id="link_instance_profile_aws_iam_instance_profile"><path codeLine="41" d="M135.5,496.81 C135.5,527.33 135.5,568.66 135.5,599.22 " fill="none" id="instance_profile-backto-aws_iam_instance_profile" style="stroke:#FFAF37;stroke-width:2.0;"/><polygon fill="none" points="135.5,478.81,129.5,496.81,141.5,496.81,135.5,478.81" style="stroke:#FFAF37;stroke-width:2.0;"/></g><!--reverse link resource to instance_profile--><g id="link_resource_instance_profile"><path codeLine="42" d="M135.5,335.85 C135.5,384.14 135.5,413.37 135.5,438.68 " fill="none" id="resource-backto-instance_profile" style="stroke:#FFAF37;stroke-width:2.0;"/><polygon fill="none" points="135.5,317.85,129.5,335.85,141.5,335.85,135.5,317.85" style="stroke:#FFAF37;stroke-width:2.0;"/></g><!--SRC=[XPBDQy904CNl-IiMl8KAMcdLqeiLIdkHKdih9OoxaxYOx8RPISL-_E_D6YinyUEMlFVBl3T3bbgXm2pdZSWmMo2vmAsqoO4W4nCYkvxQr9Ben374Ws7JVBI6Bm8po50yOVg9h2KqYRUbbYk3pedhclK0SfMGBOognZE1SQM5XclKD0Nd9ioa5mLZhOmQBqPnt2IRGpi3rH_UOWkpf91sIA_NK_rn4xaOTNRlFJ7NNoZwzQFDB6EhPYjYIvrjwObQoTQY__x9ZY-Wb3Q9kAbfhrKdCaW7-dm9oguz7KFgwZ6EaT3o9iTfQoiSZrGyF0e_du83wKydOEqY3LcaZMCm4gESRAnJ5Dz1yBjZpdc4pXOalHQ6a60OtWbL4B2snYkiiqe3HlzSQlA8ffKNNFdxcQHyBHSv5CeiZa3AykTk96oT8lUp6avs9CT09Uq7CoJLH2tzPq2RzygxsZ4VvQgj0zp_TBlTaxSBzaUfk9R_1m00]--></g></svg>

<svg xmlns="http://www.w3.org/2000/svg" width="271" height="645" viewBox="0 0 271 645"><rect width="257" height="39.789" x="7" y="599.55" fill="#3D176E" rx="2.5" ry="2.5" style="stroke:#000d19;stroke-width:.5"/><circle cx="22" cy="619.444" r="11" fill="#ADD1B2" style="stroke:#181818;stroke-width:1"/><path d="M24.969 625.085q-.578.297-1.219.438-.64.156-1.344.156-2.5 0-3.828-1.64-1.312-1.657-1.312-4.782t1.312-4.781q1.328-1.657 3.828-1.657.703 0 1.344.157.656.156 1.219.453v2.719q-.625-.579-1.219-.844-.594-.281-1.219-.281-1.343 0-2.031 1.078-.687 1.062-.687 3.156t.687 3.172q.688 1.062 2.031 1.062.625 0 1.219-.265.594-.282 1.219-.86z"/><text x="41" y="625.33" fill="#D9B8FF" font-family="Helvetica" font-size="17" textLength="215">aws_iam_instance_profile</text><rect width="174" height="39.789" x="48.5" y="438.76" fill="#3D176E" rx="2.5" ry="2.5" style="stroke:#000d19;stroke-width:.5"/><circle cx="63.5" cy="458.654" r="11" fill="#ADD1B2" style="stroke:#181818;stroke-width:1"/><path d="M66.469 464.295q-.578.297-1.219.438-.64.156-1.344.156-2.5 0-3.828-1.64-1.312-1.657-1.312-4.782t1.312-4.781q1.328-1.656 3.828-1.656.703 0 1.344.156.656.156 1.219.453v2.719q-.625-.579-1.219-.844-.594-.281-1.219-.281-1.344 0-2.031 1.078-.687 1.062-.687 3.156t.687 3.172q.688 1.062 2.031 1.062.625 0 1.219-.265.594-.281 1.219-.86z"/><text x="82.5" y="464.54" fill="#D9B8FF" font-family="Helvetica" font-size="17" textLength="132">instance_profile</text><rect width="227" height="310.758" x="22" y="7" fill="#3D176E" rx="2.5" ry="2.5" style="stroke:#000d19;stroke-width:.5"/><circle cx="90.75" cy="26.895" r="11" fill="#ADD1B2" style="stroke:#181818;stroke-width:1"/><path d="M93.719 32.535q-.578.297-1.219.438-.64.156-1.344.156-2.5 0-3.828-1.64-1.312-1.657-1.312-4.782t1.312-4.781q1.328-1.656 3.828-1.656.703 0 1.344.156.656.156 1.219.453v2.719q-.625-.578-1.219-.844-.594-.281-1.219-.281-1.344 0-2.031 1.078-.687 1.062-.687 3.156t.687 3.172q.688 1.062 2.031 1.062.625 0 1.219-.265.594-.281 1.219-.86z"/><text x="116.25" y="32.78" fill="#D9B8FF" font-family="Helvetica" font-size="17" textLength="71">resource</text><path d="M23 46.789h225" style="stroke:#000d19;stroke-width:.5"/><text x="33" y="68.784" fill="#D9B8FF" font-family="sans-serif" font-size="14" font-weight="bold" textLength="29">age</text><text x="62" y="68.784" fill="#D9B8FF" font-family="sans-serif" font-size="14" textLength="66">: duration</text><text x="33" y="95.081" fill="#D9B8FF" font-family="sans-serif" font-size="14" font-weight="bold" textLength="43">atime</text><text x="76" y="95.081" fill="#D9B8FF" font-family="sans-serif" font-size="14" textLength="70">: datetime</text><text x="33" y="121.378" fill="#D9B8FF" font-family="sans-serif" font-size="14" font-weight="bold" textLength="43">ctime</text><text x="76" y="121.378" fill="#D9B8FF" font-family="sans-serif" font-size="14" textLength="70">: datetime</text><text x="33" y="147.675" fill="#D9B8FF" font-family="sans-serif" font-size="14" font-weight="bold" textLength="14">id</text><text x="47" y="147.675" fill="#D9B8FF" font-family="sans-serif" font-size="14" textLength="48">: string</text><text x="33" y="173.972" fill="#D9B8FF" font-family="sans-serif" font-size="14" font-weight="bold" textLength="33">kind</text><text x="66" y="173.972" fill="#D9B8FF" font-family="sans-serif" font-size="14" textLength="48">: string</text><text x="33" y="200.269" fill="#D9B8FF" font-family="sans-serif" font-size="14" font-weight="bold" textLength="90">last_access</text><text x="123" y="200.269" fill="#D9B8FF" font-family="sans-serif" font-size="14" textLength="66">: duration</text><text x="33" y="226.565" fill="#D9B8FF" font-family="sans-serif" font-size="14" font-weight="bold" textLength="90">last_update</text><text x="123" y="226.565" fill="#D9B8FF" font-family="sans-serif" font-size="14" textLength="66">: duration</text><text x="33" y="252.862" fill="#D9B8FF" font-family="sans-serif" font-size="14" font-weight="bold" textLength="48">mtime</text><text x="81" y="252.862" fill="#D9B8FF" font-family="sans-serif" font-size="14" textLength="70">: datetime</text><text x="33" y="279.159" fill="#D9B8FF" font-family="sans-serif" font-size="14" font-weight="bold" textLength="43">name</text><text x="76" y="279.159" fill="#D9B8FF" font-family="sans-serif" font-size="14" textLength="48">: string</text><text x="33" y="305.456" fill="#D9B8FF" font-family="sans-serif" font-size="14" font-weight="bold" textLength="34">tags</text><text x="67" y="305.456" fill="#D9B8FF" font-family="sans-serif" font-size="14" textLength="171">: dictionary[string, string]</text><path fill="none" d="M135.5 496.81v102.41m0-120.41-6 18h12zm0-142.96v102.83m0-120.83-6 18h12z" style="stroke:#ffaf37;stroke-width:2"/></svg>
